src/main/resources/icons/KubernetesIcons/icons/toolWindowKubernetes.svg

<svg xmlns="http://www.w3.org/2000/svg" width="13" height="13" viewBox="0 0 13 13">
  <path fill="#6E6E6E" fill-rule="evenodd" d="M6.46238107,0.354124724 C6.59912619,0.34721046 6.73543212,0.374471647 6.85878922,0.433406353 L11.1345295,2.47504498 C11.3586779,2.58209172 11.5214843,2.7845432 11.5768663,3.02509545 L12.6332256,7.61358805 C12.688616,7.85425168 12.6304516,8.10683426 12.4752091,8.29978421 L9.51718424,11.9795453 C9.36191516,12.1721938 9.12668045,12.2842774 8.87801028,12.2840961 L4.13259473,12.2851897 C3.88383152,12.2852381 3.64858023,12.1729454 3.49342078,11.9800921 L0.534302163,8.30087775 C0.517758734,8.28013608 0.50224838,8.25860406 0.487826725,8.23635891 C0.367664388,8.05251669 0.327627339,7.82826977 0.376832445,7.61468159 L1.43155149,3.02618899 C1.48693348,2.78563674 1.64973988,2.58318526 1.8738883,2.47613852 L6.14908195,0.433406353 C6.24715179,0.38655546 6.35366776,0.359601158 6.46238107,0.354124724 Z M6.50474305,1.91564921 C6.36342343,1.91566355 6.24883796,2.04295315 6.24885476,2.19996935 C6.24885494,2.20237917 6.24934817,2.2046819 6.24940066,2.20707736 C6.24919245,2.22841206 6.24816189,2.25411462 6.24885476,2.27268974 C6.25222496,2.36325233 6.27196607,2.43256507 6.28384803,2.51600233 C6.30537379,2.69458454 6.3234109,2.84261832 6.31228006,2.98020993 C6.30145507,3.03209445 6.26323909,3.0795455 6.22917105,3.11252824 L6.22315658,3.22078867 C6.06959176,3.2335117 5.91499971,3.25680969 5.76058928,3.29186875 C5.09616138,3.44272789 4.52410067,3.78497764 4.08856708,4.24707568 C4.06030616,4.22779561 4.01086399,4.19232626 3.9961621,4.1814633 C3.95047541,4.18763296 3.90430109,4.20172948 3.84416008,4.16670051 C3.72964617,4.08961681 3.62534943,3.98321452 3.4991483,3.8550417 C3.44132227,3.79373016 3.39944687,3.73534704 3.33074319,3.67624795 C3.31514109,3.66282681 3.29133061,3.6446744 3.27387912,3.63086606 C3.22016655,3.58804182 3.15681438,3.56570824 3.09563215,3.56361336 C3.0169692,3.56091993 2.94124289,3.59167534 2.89168699,3.65383039 C2.80358776,3.76432829 2.83179391,3.93321754 2.95456553,4.03110159 C2.95581129,4.03209365 2.95713788,4.0328649 2.95839292,4.03383544 C2.97526352,4.04751116 2.9959225,4.06503421 3.01142959,4.07648349 C3.0843358,4.13031276 3.15093376,4.15786821 3.22357629,4.20060024 C3.37661936,4.29511374 3.50349394,4.37348205 3.60412811,4.4679707 C3.6434259,4.50986062 3.65029438,4.58367455 3.65552448,4.61559856 L3.73753996,4.68886572 C3.29848954,5.34960306 3.09529341,6.16574725 3.21537562,6.99732803 L3.10820873,7.02849392 C3.07996391,7.06496758 3.04005216,7.12235882 2.99830712,7.1394882 C2.86664266,7.1809589 2.71846173,7.19618762 2.53956721,7.21494244 C2.45557794,7.22192622 2.38310915,7.21775852 2.29406755,7.23462615 C2.27446991,7.23833859 2.24716397,7.24545254 2.22572131,7.25048248 C2.22497596,7.25063995 2.22427959,7.2508604 2.22353424,7.25102837 C2.22236546,7.25129957 2.22082996,7.25186646 2.21970685,7.25212191 C2.0688834,7.28856373 1.97199403,7.42719324 2.00318598,7.56378073 C2.03438529,7.70040023 2.1817066,7.78348195 2.33343498,7.75077602 C2.33453026,7.75052581 2.33612071,7.75048382 2.33726236,7.75023012 C2.33897529,7.7498382 2.34048332,7.74900711 2.34218329,7.74859069 C2.3633341,7.74394778 2.3898401,7.73878207 2.40834245,7.7338279 C2.49588406,7.71038888 2.55928487,7.67594973 2.63798578,7.64579795 C2.80729967,7.58507116 2.94753153,7.53434054 3.08414998,7.51457319 C3.14120966,7.5101042 3.20132687,7.54977922 3.23123107,7.56651633 L3.34277212,7.54737938 C3.59945091,8.34317569 4.13736712,8.9863905 4.81850395,9.38999378 L4.77202852,9.50153483 C4.78878014,9.54484635 4.80725642,9.60344748 4.79477799,9.64622011 C4.74511064,9.77501634 4.66003693,9.91096117 4.56316243,10.0625207 C4.51625658,10.1325408 4.46825141,10.18688 4.4259232,10.2670126 C4.4157944,10.286187 4.40289448,10.3156414 4.39311701,10.3359056 C4.32734996,10.4766199 4.37559168,10.6386884 4.50192421,10.6995076 C4.62905039,10.7607087 4.78684764,10.6961598 4.85513753,10.5551603 C4.85524251,10.5549609 4.8555872,10.5548139 4.85568343,10.5546144 C4.85575341,10.554457 4.85561344,10.5542208 4.85568343,10.5540685 C4.86541033,10.5340778 4.87919068,10.507801 4.88739608,10.4890029 C4.92365138,10.4059461 4.93571496,10.334769 4.96121001,10.2544387 C5.02891534,10.0843689 5.06611406,9.90592266 5.15931706,9.79473015 C5.18483905,9.76428198 5.22644833,9.75257201 5.26958821,9.74102178 L5.32754581,9.63604197 C5.92135082,9.86396713 6.58602035,9.92512942 7.24998861,9.77437474 C7.40145646,9.73998388 7.54768406,9.69547454 7.6890448,9.64205643 C7.70533382,9.67094915 7.73560562,9.72648995 7.74372179,9.74047501 C7.78756118,9.75473791 7.83541185,9.7621033 7.87439978,9.81975664 C7.9441307,9.93889087 7.99181795,10.0798294 8.0499129,10.2500645 C8.07541215,10.3303935 8.08801393,10.4015736 8.1242736,10.4846288 C8.13253796,10.5035593 8.14624938,10.5302051 8.15598625,10.5502412 C8.2241325,10.6916987 8.38242981,10.7564682 8.50974635,10.6951352 C8.63606331,10.6342836 8.68435822,10.4722298 8.61855355,10.3315332 C8.60877485,10.3112697 8.59533026,10.2818141 8.58520059,10.2626402 C8.54286818,10.1825098 8.49487071,10.1287126 8.44796136,10.0586951 C8.35107881,9.90714061 8.27072604,9.78123867 8.22105187,9.65244506 C8.20028144,9.58601786 8.22455609,9.54470533 8.24073558,9.50153658 C8.23104629,9.49043024 8.21031226,9.42769921 8.19808753,9.39819708 C8.9059559,8.98023466 9.4280758,8.31303319 9.67327259,7.5424602 C9.70638323,7.54766405 9.76393211,7.55784604 9.78262656,7.56159715 C9.82111111,7.53621478 9.85649631,7.5030968 9.92588026,7.50856047 C10.0624996,7.52832065 10.2027274,7.57906719 10.3720445,7.63978524 C10.450747,7.66993299 10.5141451,7.70492748 10.6016878,7.72836195 C10.6201903,7.73331507 10.6466958,7.73793611 10.667847,7.74257797 C10.6695476,7.74299439 10.6710541,7.74382723 10.6727679,7.7442174 C10.6739104,7.74447285 10.6755,7.7445131 10.6765953,7.7447633 C10.8283324,7.77742864 10.97568,7.69439556 11.0068443,7.55776801 C11.0380012,7.42117248 10.9411566,7.28251077 10.7903234,7.24610919 C10.7683838,7.24112038 10.7372692,7.23264763 10.7159627,7.22861256 C10.6269202,7.21174965 10.5544527,7.21590825 10.470463,7.20892884 C10.2915676,7.1901833 10.1433897,7.1749383 10.0117231,7.1334746 C9.95803891,7.11264871 9.91984777,7.04876919 9.90127475,7.02248032 L9.79793524,6.99240798 C9.85151449,6.60478017 9.83706734,6.20136166 9.7443518,5.79771585 C9.65077297,5.39031178 9.48539512,5.01770116 9.26483464,4.68941336 C9.29134292,4.66531542 9.34140324,4.6209856 9.35559843,4.60794466 C9.35974794,4.56203051 9.35618282,4.51389097 9.40371418,4.46305065 C9.50434328,4.36855674 9.631228,4.29020174 9.784266,4.19568019 C9.85690625,4.15294431 9.92405607,4.12539655 9.99695947,4.07156343 C10.0134457,4.05938997 10.0359577,4.04011166 10.0532768,4.02618153 C10.1760223,3.92826459 10.2042829,3.75938549 10.1161553,3.64891034 C10.0280277,3.53843518 9.85725549,3.52802906 9.73450994,3.625946 C9.7170385,3.63978322 9.69333109,3.65783397 9.67764588,3.6713279 C9.60894534,3.73043083 9.56651687,3.78880713 9.50869399,3.85012164 C9.38249969,3.97830112 9.2781921,4.0852374 9.16368222,4.16232723 C9.11406158,4.19121522 9.04138144,4.18121974 9.0083987,4.17927709 L8.91107367,4.24871686 C8.3561014,3.6667688 7.60049415,3.29470478 6.78687629,3.22242898 C6.78460068,3.18833293 6.78161943,3.12670191 6.78086183,3.10815408 C6.74755331,3.07628133 6.70731612,3.04907039 6.69720604,2.98020993 C6.6860752,2.84261832 6.70465908,2.69458454 6.72618484,2.51600233 C6.73806681,2.43256507 6.75780791,2.36325233 6.76117811,2.27268974 C6.76194446,2.25210268 6.76071445,2.22222927 6.76063222,2.19996935 C6.76061542,2.04295315 6.64606355,1.91563486 6.50474393,1.91564921 Z M6.18433592,3.90042359 L6.10833491,5.24274358 L6.10286721,5.24547743 C6.09776974,5.36556296 5.9989379,5.46145152 5.87759803,5.46145152 C5.82789341,5.46145152 5.78201496,5.44548952 5.74473296,5.4182567 L5.74254588,5.41935024 L4.64189817,4.63910966 C4.98017199,4.30647851 5.41285083,4.06066408 5.91149776,3.9474458 C6.00258507,3.92676425 6.09363179,3.91141848 6.18433592,3.90042359 Z M6.82569695,3.90042359 C7.40787072,3.97202542 7.94626913,4.23563848 8.35883962,4.63965643 L7.26529991,5.41497608 L7.26147253,5.41333665 C7.16441082,5.48422759 7.02765747,5.46663822 6.95200079,5.37178214 C6.92100865,5.33292281 6.90474728,5.28723157 6.9027915,5.24110415 L6.90169796,5.24055825 L6.82569695,3.90042359 Z M4.24275617,5.14049762 L5.24771916,6.03938725 L5.24662562,6.04485495 C5.33733465,6.12371176 5.35071101,6.26055242 5.27505765,6.35542023 C5.24406761,6.39428113 5.20258519,6.42034569 5.15804891,6.43251478 L5.15695537,6.43688894 L3.86876559,6.80869244 C3.8032008,6.20916725 3.94450066,5.6263811 4.24275617,5.14049762 Z M8.75962192,5.14104351 C8.90893996,5.38306677 9.02201109,5.65338244 9.08932414,5.9464355 C9.1558299,6.23597472 9.17252047,6.52499622 9.14509467,6.8043174 L7.85034366,6.43142036 L7.84925012,6.42595266 C7.73330866,6.39426556 7.66205484,6.27632809 7.68904655,6.15803544 C7.70010495,6.10957641 7.72582833,6.06858144 7.7606734,6.03829284 L7.76012751,6.03555899 L8.7596228,5.14104351 Z M6.29861082,6.10882615 L6.71032852,6.10882615 L6.96621681,6.42868651 L6.87435947,6.82782851 L6.50474305,7.00552871 L6.13403309,6.82728174 L6.04217576,6.42813974 L6.29861082,6.10882615 Z M7.61851324,7.20345939 C7.63600935,7.20257581 7.65342917,7.20415226 7.67045638,7.20728678 L7.67264345,7.20455293 L9.00512158,7.42982211 C8.81011284,7.977696 8.43695667,8.45232863 7.9383736,8.76995502 L7.42112932,7.52058591 L7.42276876,7.51839883 C7.37525472,7.40799524 7.42280375,7.27852766 7.53212273,7.22587696 C7.56011122,7.21239738 7.5893523,7.20493331 7.61851236,7.20345939 Z M5.38058424,7.20892709 C5.48227013,7.21035307 5.57347799,7.28093012 5.5971051,7.38444022 C5.60816629,7.43289855 5.60278275,7.48091229 5.58452939,7.52331976 L5.58835678,7.52824069 L5.0765802,8.76503409 C4.59809691,8.45799264 4.21698328,7.99826102 4.01311284,7.43419715 L5.3341088,7.21002151 L5.33629588,7.21275536 C5.35107196,7.2100362 5.36605765,7.20872413 5.38058424,7.20892797 Z M6.4965415,7.75077689 C6.53196257,7.74947514 6.56790415,7.75674289 6.60206808,7.77319445 C6.6468509,7.79475958 6.68144559,7.8287146 6.70322051,7.86942595 L6.70814144,7.86942595 L7.35934433,9.04607467 C7.27483051,9.07440575 7.18794572,9.09861847 7.09908188,9.11879506 C6.60104838,9.23187406 6.10459728,9.19761163 5.6550627,9.04443436 L6.30462529,7.86997272 L6.30571882,7.86997272 C6.34469555,7.79710956 6.41861534,7.75363987 6.4965415,7.75077689 Z"/>
</svg>

<svg xmlns="http://www.w3.org/2000/svg" width="13" height="13" viewBox="0 0 13 13"><rect id="frame" width="13" height="13" fill="none"/><path fill="#6E6E6E" fill-rule="evenodd" d="M6.462.354a.823.823 0 0 1 .397.08l4.276 2.041c.224.107.386.31.442.55l1.056 4.589a.806.806 0 0 1-.158.686l-2.958 3.68a.82.82 0 0 1-.639.304l-4.745.001a.82.82 0 0 1-.64-.305L.534 8.3a.811.811 0 0 1-.157-.685l1.055-4.589a.812.812 0 0 1 .442-.55L6.149.433a.823.823 0 0 1 .313-.079zm.043 1.562c-.142 0-.256.127-.256.284V2.273c.003.09.023.16.035.243.021.179.04.327.028.464a.28.28 0 0 1-.083.133l-.006.108a3.292 3.292 0 0 0-2.135 1.026 4.29 4.29 0 0 1-.092-.066c-.046.007-.092.02-.152-.014-.114-.077-.219-.184-.345-.312-.058-.061-.1-.12-.168-.179l-.057-.045a.304.304 0 0 0-.178-.067.247.247 0 0 0-.204.09c-.088.11-.06.28.063.377l.003.003.053.042c.073.054.14.082.213.125.153.094.28.172.38.267.04.042.046.116.052.148l.082.073a3.311 3.311 0 0 0-.523 2.308l-.107.031c-.028.037-.068.094-.11.111-.131.042-.28.057-.458.076-.084.007-.157.003-.246.02-.02.003-.047.01-.068.015l-.002.001-.004.001c-.151.037-.248.175-.217.312.031.136.179.22.33.187h.004l.005-.002.066-.015c.088-.024.151-.058.23-.088.17-.06.31-.112.446-.131.057-.005.117.035.147.052l.112-.02A3.33 3.33 0 0 0 4.819 9.39l-.047.112c.017.043.035.101.023.144a2.5 2.5 0 0 1-.232.417c-.047.07-.095.124-.137.204l-.033.069c-.066.14-.017.303.109.364.127.06.285-.004.353-.145.01-.02.024-.047.032-.066.037-.083.049-.154.074-.235.068-.17.105-.348.198-.46.026-.03.067-.041.11-.053l.059-.105a3.306 3.306 0 0 0 2.361.006l.055.098c.044.015.091.022.13.08.07.119.118.26.176.43.025.08.038.152.074.235l.032.065c.068.142.226.206.354.145.126-.06.174-.223.109-.363l-.034-.07c-.042-.08-.09-.133-.137-.203a2.39 2.39 0 0 1-.227-.407c-.02-.066.004-.107.02-.15-.01-.012-.03-.074-.043-.104a3.33 3.33 0 0 0 1.475-1.856l.11.02c.038-.026.073-.059.143-.053.136.02.277.07.446.13.079.03.142.066.23.09l.066.014.005.001h.004c.151.033.299-.05.33-.186.031-.137-.066-.275-.217-.312l-.074-.017c-.09-.017-.162-.013-.246-.02-.178-.019-.327-.034-.458-.076-.054-.02-.092-.084-.11-.11l-.104-.03a3.312 3.312 0 0 0-.533-2.303l.09-.082c.005-.046.001-.094.049-.145.1-.094.227-.173.38-.267.073-.043.14-.07.213-.124l.056-.046c.123-.098.151-.267.063-.377-.088-.11-.259-.121-.381-.023l-.057.045c-.07.06-.111.118-.17.18-.126.127-.23.234-.344.311-.05.03-.123.02-.156.017l-.097.07a3.354 3.354 0 0 0-2.124-1.027 6.182 6.182 0 0 1-.006-.114c-.033-.032-.074-.059-.084-.128-.01-.137.008-.285.03-.464.011-.083.03-.153.034-.243V2.2c0-.157-.115-.284-.256-.284zM6.185 3.9l-.077 1.343-.005.002a.226.226 0 0 1-.358.173l-.002.001-1.101-.78A2.636 2.636 0 0 1 6.184 3.9zm.64 0c.583.072 1.121.336 1.534.74l-1.094.775-.004-.002a.226.226 0 0 1-.358-.172h-.001L6.826 3.9zM4.244 5.14l1.005.9-.001.005a.225.225 0 0 1-.089.388l-.001.004-1.288.372c-.066-.6.076-1.183.374-1.669zm4.517.001a2.668 2.668 0 0 1 .385 1.663L7.85 6.431v-.005a.226.226 0 0 1-.09-.388v-.002l1-.895zm-2.461.968h.411l.256.32-.092.399-.37.178-.37-.179-.092-.399.257-.32zm1.32 1.094c.017 0 .034.001.051.004l.003-.002 1.332.225a2.639 2.639 0 0 1-1.067 1.34l-.517-1.25.002-.002a.226.226 0 0 1 .196-.315zM5.38 7.21a.226.226 0 0 1 .204.314l.003.005-.511 1.237a2.65 2.65 0 0 1-1.064-1.33l1.321-.225.002.003a.228.228 0 0 1 .045-.004zm1.116.542a.224.224 0 0 1 .207.119h.004l.651 1.176a2.646 2.646 0 0 1-1.704-.002l.65-1.174a.226.226 0 0 1 .192-.12z"/></svg>
